X:1
T:[ID 8-2a]
T:[ID 8-2a]
T:Bezeichnung standardisiert: Anglaise Angeloise In anderer Quelle: 26. Teusch - H. N. Philipp 1784 (Anm. S. Wascher);  Engl. - Hs. Wernigerode 1786 (Anm. S. Wascher);  Nr. 8 (Anglaise) - P. Meyer 1792 (Anm. S. Wascher); Bezeichnung standardisiert: Siebenschritt
T:Urheber unbekannt Erstbeleg: 1784 (Datum in der schriftlichen Quelle) Datum in der hier transkribierten schriftlichen Quelle: 1792
C:Urheber unbekannt
C:Erstbeleg: 1784 (Datum in der schriftlichen Quelle)
C:Datum in der hier transkribierten schriftlichen Quelle: 1792
L:1/8
M:2/4
K:D
V:1 treble 
V:1
 DFAd | ce/c/ A2 | Aceg | fa/f/ d2 | ffgg | eeff | ddee |{d} cB/A/ d2 ::"^O)" e2 d/c/B/A/ | %9
 a2 g/f/e/d/ |"^O)" e2 d/c/B/A/ | a2 g/f/e/d/ | ffgg | eeff | dd/ee |{d} cB/A/ d2 :| %16

